48x48/apps/evolution-mail.svg

<svg height="48" width="48" xmlns="http://www.w3.org/2000/svg"><path d="m7 20.178v21.822c0 1.108.892 2 2 2h30c1.108 0 2-.892 2-2v-21.822l-17 15.414z" opacity=".2"/><path d="m24.075 4c-.943-.003-1.889.462-2.842 1.405l-14.233 13.772 17 17.823 17-17.823-14.1-13.772c-.941-.93-1.881-1.401-2.825-1.405z" fill="#858585"/><path d="m24.076 4c-.943-.003-1.89.462-2.844 1.404l-14.232 13.774.496.52 13.736-13.295c.953-.942 1.901-1.407 2.844-1.404.943.004 1.884.474 2.824 1.404l13.606 13.291.494-.517-14.1-13.773c-.94-.93-1.88-1.4-2.824-1.404z" fill="#f4f4f7" opacity=".1"/><rect fill="#f4f4f7" height="31" rx="3" width="28" x="10" y="8"/><path d="m7 19.178v21.822c0 1.108.892 2 2 2h30c1.108 0 2-.892 2-2v-21.822l-17 15.414z" fill="#b7b7b7"/><path d="m24.076 28c-.943-.003-1.89.457-2.844 1.389l-13.634 13.039c.36.354.854.572 1.402.572h30c.549 0 1.044-.219 1.404-.574l-13.504-13.037c-.94-.92-1.88-1.386-2.824-1.389z" fill="#dedede"/><path d="m24.076 28c-.943-.003-1.89.457-2.844 1.389l-13.634 13.039c.176.173.386.311.617.41l13.017-12.45c.953-.93 1.9-1.391 2.844-1.388.943.003 1.884.47 2.824 1.389l12.893 12.447c.23-.099.436-.238.611-.41l-13.504-13.037c-.94-.92-1.88-1.386-2.824-1.389z" fill="#f4f4f7" opacity=".2"/><path d="m44 36a10 10 0 0 1 -10 10 10 10 0 0 1 -10-10 10 10 0 0 1 10-10 10 10 0 0 1 10 10z" opacity=".2"/><path d="m44 35a10 10 0 0 1 -10 10 10 10 0 0 1 -10-10 10 10 0 0 1 10-10 10 10 0 0 1 10 10z" fill="#9141ac"/><circle cx="34" cy="35" fill="#f4f4f7" r="8"/><g stroke-linecap="round"><path d="m34 35 4.8-4.7" fill="#949390" fill-rule="evenodd" stroke="#949390" stroke-width=".5"/><path d="m34 35-2.254 5.795" fill="none" stroke="#ed333b" stroke-width=".4"/><path d="m30.8 31.7 3.2 3.3" fill="none" stroke="#68676b" stroke-linejoin="round" stroke-width="1.5"/></g><circle cx="16.793" cy="45.815" fill="#42403c" r="2" transform="matrix(.91326128 -.40737432 .40737432 .91326128 0 0)"/></svg>

<svg height="48" width="48" xmlns="http://www.w3.org/2000/svg">
    <path d="M7 20.178V42c0 1.108.892 2 2 2h30c1.108 0 2-.892 2-2V20.178L24 35.592z" opacity=".2"/>
    <path d="M24.075 4c-.943-.003-1.889.462-2.842 1.405L7 19.177 24 37l17-17.823L26.9 5.405c-.941-.93-1.881-1.401-2.825-1.405z" fill="#858585"/>
    <path d="M24.076 4c-.943-.003-1.89.462-2.844 1.404L7 19.178l.496.52L21.232 6.403c.953-.942 1.901-1.407 2.844-1.404.943.004 1.884.474 2.824 1.404l13.606 13.291.494-.517L26.9 5.404c-.94-.93-1.88-1.4-2.824-1.404z" fill="#f4f4f7" opacity=".1"/>
    <rect fill="#f4f4f7" height="31" rx="3" width="28" x="10" y="8"/>
    <path d="M7 19.178V41c0 1.108.892 2 2 2h30c1.108 0 2-.892 2-2V19.178L24 34.592z" fill="#b7b7b7"/>
    <path d="M24.076 28c-.943-.003-1.89.457-2.844 1.389L7.598 42.428c.36.354.854.572 1.402.572h30c.549 0 1.044-.219 1.404-.574L26.9 29.389c-.94-.92-1.88-1.386-2.824-1.389z" fill="#dedede"/>
    <path d="M24.076 28c-.943-.003-1.89.457-2.844 1.389L7.598 42.428c.176.173.386.311.617.41l13.017-12.45c.953-.93 1.9-1.391 2.844-1.388.943.003 1.884.47 2.824 1.389l12.893 12.447c.23-.099.436-.238.611-.41L26.9 29.389c-.94-.92-1.88-1.386-2.824-1.389z" fill="#f4f4f7" opacity=".2"/>
    <path d="M44 36a10 10 0 0 1-10 10 10 10 0 0 1-10-10 10 10 0 0 1 10-10 10 10 0 0 1 10 10z" opacity=".2"/>
    <path d="M44 35a10 10 0 0 1-10 10 10 10 0 0 1-10-10 10 10 0 0 1 10-10 10 10 0 0 1 10 10z" fill="#9141ac"/>
    <circle cx="34" cy="35" fill="#f4f4f7" r="8"/>
    <g stroke-linecap="round">
        <path d="m34 35 4.8-4.7" fill="#949390" fill-rule="evenodd" stroke="#949390" stroke-width=".5"/>
        <g fill="none">
            <path d="m34 35-2.254 5.795" stroke="#ed333b" stroke-width=".4"/>
            <path d="M30.8 31.7 34 35" stroke="#68676b" stroke-linejoin="round" stroke-width="1.5"/>
        </g>
    </g>
    <circle cx="16.793" cy="45.815" fill="#42403c" r="2" transform="rotate(-24.04)"/>
</svg>
